!!!!SEGMENT: pl-kk--kk-i-111--011_anonim--deo-gratias-de-apostolis.krn
!!!cenid: 18xx:2580
!!!COM: Anonim
!!!COM-rismID: pe30004985
!!!CDT:
!!!CNT:
!!!OTL: Deo gratias
!!!PDT: 1824
!!!AGN: Sacred
!!!SMS-siglum: PL-Kk
!!!SMS-shelfmark: Kk.I.111
!!!SMS-shelfwork: 011 W
!!!SMS-variant:
!!!SMS-altvar:
!!!NIFC-rismSourceID: 1001157695
!!!NIFC-islandoraID: pl-kk:3371
!!!URL-pdf-islandora: https://repozytorium.nifc.pl/islandora/object/pl-kk%3A3371/datastream/PDF/view
!!!URL-scan: https://polish.musicsources.pl/pl/lokalizacje/galeria/rekopisy/5747 @EN{Scan on Polish Music Sources Website} @PL{Skany w portalu Dziedzictwo Muzyki Polskiej w otwartym dostępie}
!!!ONB-nifc: UWAGA: A, T1, T2. Podział na poszególne Deo gratias. A: skan 0003 (m.in)
!!!AIN: 1 alto 2 tenor
!!!key:
**kern	**text	**kern	**text	**kern	**text
*part3	*part3	*part2	*part2	*part1	*part1
*staff3	*staff3	*staff2	*staff2	*staff1	*staff1
*Itenor	*	*Itenor	*	*Ialto	*
*I"Tenore Vagante.	*	*I"Tenore Chorale.	*	*I"Alto.	*
*I'T 2	*	*I'T 1	*	*I'A	*
*clefC4	*	*clefC4	*	*clefC3	*
*k[b-]	*	*k[b-]	*	*k[b-]	*
*g:	*	*g:	*	*g:	*
*M2/1	*	*M2/1	*	*M2/1	*
*met(c|)	*	*met(c|)	*	*met(c|)	*
*all\right	*	*all\right	*	*all\right	*
*2\right	*	*2\right	*	*2\right	*
=1-	=1-	=1-	=1-	=1-	=1-
!LO:TX:t=P:problem=2\right&colon; global	!	!	!	!	!
!	!	!LO:TX:t=P:problem=kreska pseudotaktowa	!	!	!
!	!	!	!	!LO:TX:t=P:problem=2\right&colon; global	!
2B-\	De-	1G	De-	2d\	De-
!LO:TX:t=P:problem=kreska pseudotaktowa	!	!	!	!	!
2d\	.	.	.	1g	.
*	*	*lig	*	*	*
2c\	-o	1A	.	.	.
!LO:TX:t=P:problem=kreska pseudotaktowa	!	!	!	!LO:TX:t=P:problem=kreska pseudotaktowa	!
2A\	.	.	.	2f#X\	-o
=2	=2-	=2-	=2-	=2	=2-
!	!	!LO:TX:t=P:problem=kreska pseudotaktowa	!	!	!
2B-\	gra-	1G	.	1.g	gra-
2d\	.	.	.	.	.
!LO:TX:t=P:problem=kreska pseudotaktowa	!	!	!	!	!
*	*	*Xlig	*	*	*
*	*	*lig	*	*	*
2c\	.	1A	-o	.	.
!LO:TX:t=P:problem=kreska pseudotaktowa	!	!	!	!LO:TX:t=P:problem=kreska pseudotaktowa	!
2A\	-ti-	.	.	2f#X\	-ti-
=3	=3-	=3-	=3-	=3	=3-
!LO:TX:t=P:problem=kreska pseudotaktowa	!	!	!	!	!
1B-	-as	1G	.	2g\	-as
!	!	!	!	!LO:TX:t=P:problem=kreska pseudotaktowa	!
.	.	.	.	2d\	De-
2c\	De-	1F	.	2c\	-o
1B-\	.	.	.	1d\	gra-
=4-	=4-	=4-	=4-	=4-	=4-
!	!	!LO:TX:t=P:problem=kreska pseudotaktowa	!	!	!
.	.	1E	.	.	.
2A\	-o	.	.	2c#X\	-ti-
!LO:TX:t=P:problem=kreska pseudotaktowa	!	!	!	!LO:TX:t=P:problem=kreska pseudotaktowa	!
*	*	*Xlig	*	*	*
!LO:TX:t=P:problem=kreska pseudotaktowa	!	!LO:TX:t=P:problem=kreska pseudotaktowa	!	!LO:TX:t=P:problem=kreska pseudotaktowa	!
1A	gra-	1D	.	1d	-as
=5	=5-	=5	=5-	=5	=5-
*	*	*lig	*	*	*
2B-\	.	1G	gra-	2d\	De-
!LO:TX:t=P:problem=kreska pseudotaktowa	!	!	!	!LO:TX:t=P:problem=kreska pseudotaktowa	!
2d\	.	.	.	2B-/	.
!	!	!LO:TX:t=P:problem=kreska pseudotaktowa	!	!	!
2c\	.	1F	.	2c/	-o
2B-\	.	.	.	2d\	.
!LO:TX:t=P:problem=kreska pseudotaktowa	!	!	!	!LO:TX:t=P:problem=kreska pseudotaktowa	!
*	*	*Xlig	*	*	*
=6-	=6-	=6	=6-	=6-	=6-
!LO:TX:t=P:problem=kreska pseudotaktowa	!	!	!	!	!
*	*	*lig	*	*	*
1d	.	1G	.	2B-/	gra-
!	!	!	!	!LO:TX:t=P:problem=kreska pseudotaktowa	!
.	.	.	.	2d\	.
2c\	.	1F	.	2A/	.
1B-\	.	.	.	1d\	.
=7-	=7-	=7-	=7-	=7-	=7-
.	.	1E	.	.	.
!LO:TX:t=P:problem=kreska pseudotaktowa	!	!	!	!LO:TX:t=P:problem=kreska pseudotaktowa	!
2A\	.	.	.	2c#X\	-ti-
!	!	!LO:TX:t=P:problem=kreska pseudotaktowa	!	!	!
2A\	.	1D	.	2d\	-as
2B-\	.	.	.	2B-/	De-
!LO:TX:t=P:problem=kreska pseudotaktowa	!	!	!LO:LB:g=original	!LO:TX:t=P:problem=kreska pseudotaktowa	!
*	*	*Xlig	*	*	*
=8-	=8-	=8	=8-	=8-	=8-
*	*	*lig	*	*	*
2c\	.	1F	.	2A/	-o
!LO:TX:t=P:problem=kreska pseudotaktowa	!	!	!	!LO:TX:t=P:problem=kreska pseudotaktowa	!
2B-\	-ti-	.	.	2d/	.
!LO:TX:t=P:problem=kreska pseudotaktowa	!	!	!	!LO:TX:t=P:problem=kreska pseudotaktowa	!
1B-	-as	1G	.	1e-X	gra-
=9	=9-	=9-	=9-	=9	=9-
!	!	!LO:TX:t=P:problem=kreska pseudotaktowa	!	!	!
2c\	De-	1A	.	2.f\	.
2d\	.	.	.	.	.
.	.	.	.	4f\	-ti-
!LO:TX:t=P:problem=kreska pseudotaktowa	!	!	!	!LO:TX:t=P:problem=kreska pseudotaktowa	!
*	*	*Xlig	*	*	*
!	!	!LO:TX:t=P:problem=kreska pseudotaktowa	!	!	!
1.B-	-o	1B-X	.	2g\	-as
.	.	.	.	1g\	De-
=10	=10-	=10	=10-	=10-	=10-
!	!	!LO:TX:t=P:problem=kreska pseudotaktowa	!	!	!
.	.	1G	.	.	.
!LO:TX:t=P:problem=kreska pseudotaktowa	!	!	!	!LO:TX:t=P:problem=kreska pseudotaktowa	!
2A\	.	.	.	2e-X\	-o
2.A\	gra-	2.F#X/	.	2.d\	gra-
!LO:TX:t=P:problem=kreska pseudotaktowa	!	!LO:TX:t=P:problem=kreska pseudotaktowa	!	!LO:TX:t=P:problem=kreska pseudotaktowa	!
4A\	-ti-	4F#/	-ti-	4d\	-ti-
=11	=11-	=11	=11-	=11	=11-
0Bn;	-as.	0G;	-as	0d;	-as.
==	==	==	==	==	==
*-	*-	*-	*-	*-	*-
!!!system-decoration: [(s1,s2,s3)]
!!!ENC: Kamil Watkowski
!!!END: 2021-08-04
